public/sponsors/citadel.svg

<svg width="145" height="19" viewBox="0 0 145 19" fill="none" xmlns="http://www.w3.org/2000/svg">
<g clip-path="url(#clip0_612_10)">
<path d="M0 17.777H33.133V13.007H0V17.777ZM0 5.97304H6.629V1.20704H0V5.97304ZM13.254 5.97304H19.883V1.20704H13.253L13.254 5.97304ZM26.508 5.97304H33.133V1.20704H26.508V5.97304ZM15.996 11.875H0V7.10904H15.996V11.875ZM33.133 11.875H17.137V7.10904H33.133V11.875ZM58.195 17.219C60.387 17.145 60.871 16.73 60.871 15.832V3.23004C60.871 2.33204 60.387 1.89504 58.195 1.82004V1.28504H65.859V1.82004C63.668 1.89504 63.184 2.33204 63.184 3.23004V15.832C63.184 16.73 63.668 17.145 65.859 17.219V17.777H58.195V17.219ZM71.016 17.219C73.18 17.145 73.836 16.73 73.836 15.832V1.96504H72.62C70.577 1.96504 69.53 1.98004 68.339 4.97304L67.804 4.92204L67.948 1.28504H82.007L82.179 4.92204L81.644 4.97204C80.55 2.17204 79.479 1.96504 77.362 1.96504H76.12V15.832C76.12 16.73 76.78 17.145 78.944 17.219V17.777H71.014V17.219H71.016ZM114.684 17.219C116.797 17.145 117.336 16.73 117.336 15.832V3.23004C117.336 2.33204 116.796 1.89504 114.684 1.82004V1.28504H128.063L128.133 4.91804L127.598 4.94104C126.578 1.99604 125.75 1.99204 122.977 1.99204H119.645V8.87504H121.129C123.051 8.87504 123.902 8.43804 124.535 5.83204H125.02V12.598H124.535C123.902 9.99204 123.051 9.57804 121.129 9.57804H119.645V16.938H122.977C126.238 16.938 127.332 17.023 128.402 13.91L128.938 13.937L128.816 17.777H114.684V17.219ZM131.418 17.219C133.535 17.145 134.07 16.73 134.07 15.832V3.23004C134.07 2.33204 133.535 1.89504 131.418 1.82004V1.28504H138.91V1.82004C136.746 1.89504 136.379 2.30904 136.379 3.23004V16.937H138.813C142.023 16.937 143.168 15.977 144.336 12.426L144.871 12.449L144.676 17.777H131.418V17.219ZM104.363 16.965H102.563V1.96504H104.34C108.766 1.96504 110.957 3.88704 110.957 9.38704C110.957 14.785 109.543 16.965 104.363 16.965ZM104.605 1.28504H98.004V1.84404C99.774 1.96104 100.254 2.39404 100.254 3.23004V15.832C100.254 16.668 99.774 17.082 98.004 17.192V17.777H104.828C110.957 17.777 113.605 13.664 113.605 9.23804C113.605 4.61804 110.566 1.28504 104.605 1.28504ZM85.828 10.82L88.504 3.93704H88.602L90.984 10.82H85.828ZM94.949 15.004L89.793 0.894043H88.969L83.906 13.566C82.934 15.976 82.254 16.875 80.621 17.266V17.777H86.098V17.266C83.93 16.902 83.688 16.367 84.711 13.715L85.563 11.5H91.23L92.543 15.297C93.027 16.66 92.687 17.145 90.473 17.266V17.777H97.328V17.191C95.863 16.921 95.461 16.379 94.949 15.004ZM50.61 1.55504C47.738 1.55504 45.063 4.08204 45.063 9.62904C45.063 14.906 48.273 17.094 51.07 17.094C51.9225 17.0844 52.7597 16.8657 53.508 16.457C54.262 16.043 54.949 15.477 55.438 14.762C55.781 14.262 56.028 13.754 56.246 13.141L56.786 13.305C56.512 14.184 56.133 15.043 55.574 15.781C55.0379 16.493 54.3494 17.0763 53.559 17.488C53.3331 17.602 53.1007 17.7025 52.863 17.789C52.5996 17.8852 52.3296 17.9621 52.055 18.019C51.5157 18.1328 50.9661 18.1905 50.415 18.191C45.719 18.191 42.41 14.809 42.41 9.72704C42.41 4.69104 46.133 0.895043 50.875 0.895043C52.602 0.895043 53.988 1.35904 55.012 1.91804L55.863 1.90604L56.039 3.50004L56.371 6.27004H55.863C54.743 3.25404 53.067 1.55504 50.61 1.55504Z" fill="black"/>
</g>
<defs>
<clipPath id="clip0_612_10">
<rect width="145" height="19" fill="white"/>
</clipPath>
</defs>
</svg>

<svg width="145" height="19" xmlns="http://www.w3.org/2000/svg"><path d="M0 17.777h33.133v-4.77H0zM0 5.973h6.629V1.207H0zm13.254 0h6.629V1.207h-6.63zm13.254 0h6.625V1.207h-6.625zm-10.512 5.902H0V7.109h15.996zm17.137 0H17.137V7.109h15.996zm25.062 5.344c2.192-.074 2.676-.489 2.676-1.387V3.23c0-.898-.484-1.335-2.676-1.41v-.535h7.664v.535c-2.191.075-2.675.512-2.675 1.41v12.602c0 .898.484 1.313 2.675 1.387v.558h-7.664v-.558zm12.821 0c2.164-.074 2.82-.489 2.82-1.387V1.965H72.62c-2.043 0-3.09.015-4.281 3.008l-.535-.051.144-3.637h14.059l.172 3.637-.535.05c-1.094-2.8-2.165-3.007-4.282-3.007H76.12v13.867c0 .898.66 1.313 2.824 1.387v.558h-7.93v-.558zm43.668 0c2.113-.074 2.652-.489 2.652-1.387V3.23c0-.898-.54-1.335-2.652-1.41v-.535h13.379l.07 3.633-.535.023c-1.02-2.945-1.848-2.949-4.621-2.949h-3.332v6.883h1.484c1.922 0 2.773-.437 3.406-3.043h.485v6.766h-.485c-.633-2.606-1.484-3.02-3.406-3.02h-1.484v7.36h3.332c3.261 0 4.355.085 5.425-3.028l.536.027-.122 3.84h-14.132v-.558zm16.734 0c2.117-.074 2.652-.489 2.652-1.387V3.23c0-.898-.535-1.335-2.652-1.41v-.535h7.492v.535c-2.164.075-2.531.489-2.531 1.41v13.707h2.434c3.21 0 4.355-.96 5.523-4.511l.535.023-.195 5.328h-13.258v-.558zm-27.055-.254h-1.8v-15h1.777c4.426 0 6.617 1.922 6.617 7.422 0 5.398-1.414 7.578-6.594 7.578m.242-15.68h-6.601v.559c1.77.117 2.25.55 2.25 1.386v12.602c0 .836-.48 1.25-2.25 1.36v.585h6.824c6.129 0 8.777-4.113 8.777-8.539 0-4.62-3.039-7.953-9-7.953M85.828 10.82l2.676-6.883h.098l2.382 6.883h-5.156zm9.121 4.184L89.793.894h-.824l-5.063 12.672c-.972 2.41-1.652 3.309-3.285 3.7v.511h5.477v-.511c-2.168-.364-2.41-.899-1.387-3.551l.852-2.215h5.667l1.313 3.797c.484 1.363.144 1.848-2.07 1.969v.511h6.855v-.586c-1.465-.27-1.867-.812-2.379-2.187zM50.61 1.555c-2.872 0-5.547 2.527-5.547 8.074 0 5.277 3.21 7.465 6.007 7.465a5.21 5.21 0 0 0 2.438-.637c.754-.414 1.441-.98 1.93-1.695.343-.5.59-1.008.808-1.621l.54.164c-.274.879-.653 1.738-1.212 2.476a5.982 5.982 0 0 1-2.015 1.707 6.436 6.436 0 0 1-.696.301 5.786 5.786 0 0 1-.808.23 7.986 7.986 0 0 1-1.64.172c-4.696 0-8.005-3.382-8.005-8.464 0-5.036 3.723-8.832 8.465-8.832 1.727 0 3.113.464 4.137 1.023l.851-.012.176 1.594.332 2.77h-.508c-1.12-3.016-2.797-4.715-5.254-4.715" fill="#002E6C"/></svg>
